Sweet-Rainbow/icons/usbguard-icon.svg

<?xml version="1.0" encoding="UTF-8" standalone="no"?>
<!-- Generator: Gravit.io -->

<svg
   xmlns:dc="http://purl.org/dc/elements/1.1/"
   xmlns:cc="http://creativecommons.org/ns#"
   xmlns:rdf="http://www.w3.org/1999/02/22-rdf-syntax-ns#"
   xmlns:svg="http://www.w3.org/2000/svg"
   xmlns="http://www.w3.org/2000/svg"
   xmlns:sodipodi="http://sodipodi.sourceforge.net/DTD/sodipodi-0.dtd"
   xmlns:inkscape="http://www.inkscape.org/namespaces/inkscape"
   style="isolation:isolate"
   viewBox="0 0 36 36"
   width="48"
   height="48"
   version="1.1"
   id="svg9"
   sodipodi:docname="usbguard-icon.svg"
   inkscape:version="0.92.4 (5da689c313, 2019-01-14)">
  <metadata
     id="metadata15">
    <rdf:RDF>
      <cc:Work
         rdf:about="">
        <dc:format>image/svg+xml</dc:format>
        <dc:type
           rdf:resource="http://purl.org/dc/dcmitype/StillImage" />
        <dc:title></dc:title>
      </cc:Work>
    </rdf:RDF>
  </metadata>
  <defs
     id="defs13" />
  <sodipodi:namedview
     pagecolor="#ffffff"
     bordercolor="#666666"
     borderopacity="1"
     objecttolerance="10"
     gridtolerance="10"
     guidetolerance="10"
     inkscape:pageopacity="0"
     inkscape:pageshadow="2"
     inkscape:window-width="640"
     inkscape:window-height="480"
     id="namedview11"
     showgrid="false"
     inkscape:zoom="29.365243"
     inkscape:cx="25.325443"
     inkscape:cy="32"
     inkscape:current-layer="svg9"
     units="px" />
  <linearGradient
     id="_lgradient_11"
     x1="0"
     y1="0.5"
     x2="0.90748805"
     y2="0.92007786"
     gradientTransform="matrix(36.28,0,0,46.169,6,1)"
     gradientUnits="userSpaceOnUse">
    <stop
       offset="0%"
       stop-opacity="1"
       style="stop-color:rgb(78,84,200)"
       id="stop2" />
    <stop
       offset="83.88839793817618%"
       stop-opacity="1"
       style="stop-color:rgb(0,114,255)"
       id="stop4" />
  </linearGradient>
  <g
     id="g826"
     transform="matrix(0.77974436,0,0,0.77974436,-0.82302885,-0.77974444)">
    <path
       id="path7"
       d="M 6.12,17 6,23.17 c 0,0.01 0,0.01 0,0.02 0.02,2.49 0.46,4.96 1.29,7.31 0.84,2.4 2,4.68 3.46,6.77 1.44,2.09 3.16,3.98 5.12,5.61 1.91,1.6 4.07,2.88 6.39,3.78 0.01,0 0.01,0 0.02,0 l 1.02,0.38 c 0.47,0.18 0.99,0.17 1.45,-0.02 0.84,-0.34 1.65,-0.75 2.41,-1.23 0.82,-0.51 1.6,-1.07 2.34,-1.68 1.61,-1.31 3.08,-2.79 4.4,-4.39 1.39,-1.67 2.64,-3.47 3.72,-5.36 1.08,-1.85 1.97,-3.81 2.66,-5.85 0,0 0,-0.01 0,-0.01 l 0.62,-1.87 v 0 c 0.348,-1.049 -0.221,-2.182 -1.27,-2.53 v 0 c -1.049,-0.348 -2.182,0.221 -2.53,1.27 v 0 0 l -0.62,1.87 c -0.59,1.78 -1.37,3.5 -2.32,5.12 -0.98,1.7 -2.1,3.31 -3.35,4.81 -1.15,1.41 -2.44,2.7 -3.84,3.85 -0.61,0.5 -1.26,0.96 -1.93,1.38 -0.35,0.22 -0.72,0.43 -1.1,0.61 L 23.69,42.92 C 21.78,42.18 20,41.13 18.44,39.81 16.75,38.41 15.27,36.79 14.03,34.99 12.78,33.2 11.78,31.24 11.06,29.17 10.38,27.24 10.02,25.21 10,23.16 L 10.12,17 v 0 -2 -2 c 0,-1.104 0.896,-2 2,-2 h 2.32 c 1.104,0 2,-0.896 2,-2 V 7 c 0,-1.104 0.896,-2 2,-2 H 29 c 1.104,0 2,0.896 2,2 v 2 c 0,1.104 0.896,2 2,2 h 3.28 c 1.104,0 2,0.896 2,2 v 2 0 c 0,1.104 0.896,2 2,2 v 0 c 1.104,0 2,-0.896 2,-2 v 0 -4 c 0,-2.208 -1.792,-4 -4,-4 H 35 V 5 C 35,2.792 33.208,1 31,1 H 16.44 c -2.208,0 -4,1.792 -4,4 v 2 h -2.32 c -2.208,0 -4,1.792 -4,4 v 4 z m 25.899,11.441 c -0.575,1.811 -1.709,3.405 -3.247,4.535 -1.55,1.14 -3.42,1.76 -5.34,1.76 -2.39,0 -4.68,-0.95 -6.37,-2.64 -1.68,-1.68 -2.63,-3.97 -2.63,-6.36 0,-2.39 0.95,-4.68 2.63,-6.37 1.69,-1.68 3.98,-2.63 6.37,-2.63 4.421,-0.259 8.311,3.481 8.6,6.32 h -4.38 c -0.92,-1.44 -2.51,-2.32 -4.22,-2.32 -1.33,0 -2.6,0.53 -3.54,1.46 -0.94,0.94 -1.46,2.21 -1.46,3.54 0,1.32 0.52,2.6 1.46,3.53 0.94,0.94 2.21,1.47 3.54,1.47 1.07,0 2.11,-0.34 2.97,-0.98 0.493,-0.36 0.91,-0.807 1.237,-1.315 h -6.154 v -3.617 h 8.668 c 1.104,0 1.97,0.896 1.933,1.999 l -0.054,1.618 z M 19.26,7 h 4 v 4 h -4 z m 5.49,0 h 4 v 4 h -4 z"
       style="fill:url(#_lgradient_11);fill-rule:evenodd"
       inkscape:connector-curvature="0" />
  </g>
</svg>

<?xml version="1.0" encoding="UTF-8" standalone="no"?><!-- Generator: Gravit.io --><svg xmlns="http://www.w3.org/2000/svg" xmlns:xlink="http://www.w3.org/1999/xlink" style="isolation:isolate" viewBox="0 0 48 48" width="48pt" height="48pt"><linearGradient id="_lgradient_11" x1="0" y1="0.5" x2="0.9074880558539661" y2="0.9200778838291643" gradientTransform="matrix(36.28,0,0,46.169,6,1)" gradientUnits="userSpaceOnUse"><stop offset="0%" stop-opacity="1" style="stop-color:rgb(78,84,200)"/><stop offset="83.88839793817618%" stop-opacity="1" style="stop-color:rgb(0,114,255)"/></linearGradient><path d=" M 6.12 17 L 6 23.17 C 6 23.18 6 23.18 6 23.19 C 6.02 25.68 6.46 28.15 7.29 30.5 C 8.13 32.9 9.29 35.18 10.75 37.27 C 12.19 39.36 13.91 41.25 15.87 42.88 C 17.78 44.48 19.94 45.76 22.26 46.66 C 22.27 46.66 22.27 46.66 22.28 46.66 L 23.3 47.04 C 23.77 47.22 24.29 47.21 24.75 47.02 C 25.59 46.68 26.4 46.27 27.16 45.79 C 27.98 45.28 28.76 44.72 29.5 44.11 C 31.11 42.8 32.58 41.32 33.9 39.72 C 35.29 38.05 36.54 36.25 37.62 34.36 C 38.7 32.51 39.59 30.55 40.28 28.51 C 40.28 28.51 40.28 28.5 40.28 28.5 L 40.9 26.63 L 40.9 26.63 C 41.248 25.581 40.679 24.448 39.63 24.1 L 39.63 24.1 C 38.581 23.752 37.448 24.321 37.1 25.37 L 37.1 25.37 L 37.1 25.37 L 36.48 27.24 C 35.89 29.02 35.11 30.74 34.16 32.36 C 33.18 34.06 32.06 35.67 30.81 37.17 C 29.66 38.58 28.37 39.87 26.97 41.02 C 26.36 41.52 25.71 41.98 25.04 42.4 C 24.69 42.62 24.32 42.83 23.94 43.01 L 23.69 42.92 C 21.78 42.18 20 41.13 18.44 39.81 C 16.75 38.41 15.27 36.79 14.03 34.99 C 12.78 33.2 11.78 31.24 11.06 29.17 C 10.38 27.24 10.02 25.21 10 23.16 L 10.12 17 L 10.12 17 L 10.12 15 L 10.12 13 C 10.12 11.896 11.016 11 12.12 11 L 14.44 11 C 15.544 11 16.44 10.104 16.44 9 L 16.44 7 C 16.44 5.896 17.336 5 18.44 5 L 29 5 C 30.104 5 31 5.896 31 7 L 31 9 C 31 10.104 31.896 11 33 11 L 36.28 11 C 37.384 11 38.28 11.896 38.28 13 L 38.28 15 L 38.28 15 C 38.28 16.104 39.176 17 40.28 17 L 40.28 17 C 41.384 17 42.28 16.104 42.28 15 L 42.28 15 L 42.28 11 C 42.28 8.792 40.488 7 38.28 7 L 35 7 L 35 5 C 35 2.792 33.208 1 31 1 L 16.44 1 C 14.232 1 12.44 2.792 12.44 5 L 12.44 7 L 10.12 7 C 7.912 7 6.12 8.792 6.12 11 L 6.12 15 L 6.12 17 L 6.12 17 L 6.12 17 L 6.12 17 Z  M 32.019 28.441 C 31.444 30.252 30.31 31.846 28.772 32.976 C 27.222 34.116 25.352 34.736 23.432 34.736 C 21.042 34.736 18.752 33.786 17.062 32.096 C 15.382 30.416 14.432 28.126 14.432 25.736 C 14.432 23.346 15.382 21.056 17.062 19.366 C 18.752 17.686 21.042 16.736 23.432 16.736 C 27.853 16.477 31.743 20.217 32.032 23.056 L 27.652 23.056 C 26.732 21.616 25.142 20.736 23.432 20.736 C 22.102 20.736 20.832 21.266 19.892 22.196 C 18.952 23.136 18.432 24.406 18.432 25.736 C 18.432 27.056 18.952 28.336 19.892 29.266 C 20.832 30.206 22.102 30.736 23.432 30.736 C 24.502 30.736 25.542 30.396 26.402 29.756 C 26.895 29.396 27.312 28.949 27.639 28.441 L 21.485 28.441 L 21.485 24.824 L 30.153 24.824 C 31.257 24.824 32.123 25.72 32.086 26.823 L 32.032 28.441 L 32.019 28.441 L 32.019 28.441 L 32.019 28.441 L 32.019 28.441 Z  M 19.26 7 L 23.26 7 L 23.26 11 L 19.26 11 L 19.26 7 L 19.26 7 Z  M 24.75 7 L 28.75 7 L 28.75 11 L 24.75 11 L 24.75 7 Z " fill-rule="evenodd" fill="url(#_lgradient_11)"/></svg>
